X:305
T:Soggy Path, The
C:Nigel Gatherer
Z:Nigel Gatherer <gatherer@argonet.co.uk>
M:2/4
L:1/8
R:Polka
K:D
dA dA|f/g/f/e/ dA|B/c/d Af|ed B2|dA dA|f/g/f/e/ dA|G/A/B A>c|ed d2:|
fd de/f/|gB Bd|c/d/e B>c|BA a2|fd de/f/|gB Bd|c/d/e A>c|ed d2:|
<end>
<start>
